assets/icons/folder_icons/folder-component.svg

<?xml version="1.0" encoding="UTF-8"?><svg id="Layer_24_copy_6" xmlns="http://www.w3.org/2000/svg" xmlns:xlink="http://www.w3.org/1999/xlink" viewBox="0 0 14 14"><defs><style>.cls-1{fill:#ff6700;}.cls-2{fill:url(#linear-gradient);isolation:isolate;opacity:.723;}.cls-3{fill:#40a0ff;}.cls-3,.cls-4{fill-rule:evenodd;}</style><linearGradient id="linear-gradient" x1="892.8598" y1="-1049.0094" x2="892.8598" y2="-1045.0094" gradientTransform="translate(-443.4304 -522.5047) scale(.5 -.5)" gradientUnits="userSpaceOnUse"><stop offset="0" stop-color="#000"/><stop offset="1" stop-color="#000" stop-opacity=".151"/></linearGradient></defs><path id="folder" class="cls-1" d="m.9995,0C.5281,0-.0005.5286-.0005,1v7c0,.4714.5286,1,1,1h10c.4714,0,1-.5286,1-1V2c0-.4714-.5286-1-1-1h-5C5.9995.5286,5.4709,0,4.9995,0H.9995Z"/><path id="tab" class="cls-2" d="m.9995,0C.5281,0-.0005.5286-.0005,1s.5286,1,1,1h4c.4714,0,1-.5286,1-1S5.4709,0,4.9995,0H.9995Z"/><g id="Layer_90"><path class="cls-4" d="m7.0024,13.999c-1.104,0-2.0024-.8984-2.0024-2.002v-.2656c-.2944.1709-.6362.2686-1,.2686-1.103,0-2-.8975-2-2v-1c0-1.1025.897-2,2-2,.3638,0,.7056.0977,1,.2686v-.2686c0-1.1025.897-2,2-2h.2686c-.1709-.2939-.2686-.6357-.2686-1,0-1.1025.897-2,2-2h1c1.103,0,2,.8975,2,2,0,.3643-.0977.7061-.2686,1h.27c1.1021,0,1.9985.8965,1.9985,1.998v5.0039c0,1.1016-.8965,1.998-1.9985,1.998l-4.999-.001Z"/><path class="cls-3" d="m6,9v-2c0-.5523.4477-1,1-1h2v-1h0c-.5523,0-1-.4477-1-1h0c0-.5523.4477-1,1-1h1c.5523,0,1,.4477,1,1h0c0,.5523-.4477,1-1,1h0v1h2.0016c.5514,0,.9984.447.9984.9984v1.0016s-1.0152,0-1.0152,0c-.5439,0-.9848.4409-.9848.9848v1.0304c0,.5439.4409.9848.9848.9848h1.0152v1.0015c0,.5514-.4471.9985-.9985.9984h-1.0015v-1.0041c0-.5502-.446-.9962-.9962-.9962h-1.0076c-.5502,0-.9962.446-.9962.9962v1.0037s-.9977-.0001-.9977-.0001c-.5536,0-1.0023-.4488-1.0023-1.0024v-1.997h-1c0,.5523-.4477,1-1,1h0c-.5523,0-1-.4477-1-1v-1c0-.5523.4477-1,1-1h0c.5523,0,1,.4477,1,1h1Z"/></g></svg>

<svg xmlns="http://www.w3.org/2000/svg" viewBox="0 0 14 14"><defs><linearGradient id="a" x1="892.86" x2="892.86" y1="-1049.009" y2="-1045.009" gradientTransform="matrix(.5 0 0 -.5 -443.43 -522.505)" gradientUnits="userSpaceOnUse"><stop offset="0"/><stop offset="1" stop-opacity=".151"/></linearGradient></defs><path fill="#ff6700" d="M1 0C.528 0 0 .529 0 1v7c0 .471.528 1 1 1h10c.47 0 1-.529 1-1V2c0-.471-.53-1-1-1H6c0-.471-.53-1-1-1z"/><path fill="url(#a)" d="M1 0C.528 0 0 .529 0 1s.528 1 1 1h4c.47 0 1-.529 1-1s-.53-1-1-1z" opacity=".723" style="isolation:isolate"/><path fill-rule="evenodd" d="M7.002 13.999A2.005 2.005 0 0 1 5 11.997v-.266A2.002 2.002 0 0 1 2 10V9a2.002 2.002 0 0 1 3-1.731V7c0-1.102.897-2 2-2h.269A2.002 2.002 0 0 1 9 2h1a2.002 2.002 0 0 1 1.731 3h.27A2 2 0 0 1 14 6.998v5.004A2 2 0 0 1 12 14z"/><path fill="#40a0ff" fill-rule="evenodd" d="M6 9V7a1 1 0 0 1 1-1h2V5a1 1 0 1 1 0-2h1a1 1 0 1 1 0 2v1h2.002c.551 0 .998.447.998.998V8h-1.015a.985.985 0 0 0-.985.985v1.03c0 .544.44.985.985.985H13v1.002a1 1 0 0 1-.998.998H11v-1.004a.996.996 0 0 0-.996-.996H8.996a.996.996 0 0 0-.996.996V13h-.998A1 1 0 0 1 6 11.996V10H5a1 1 0 1 1-2 0V9a1 1 0 1 1 2 0z"/></svg>
